X:1
T:Miss Hamilton’s Delight
M:C
L:1/8
R:Air
N:”Slow”
S:McGibbon – Scots Tunes, Book 1 (c. 1762)
Z:AK/Fiddler’s Companion
K:D
"Slow"Tf2 (f/g/a) (gf)(ed) | a>g (f/g/a) TA4 | {G/A/}B2 AG F/A/d/F/ | (GF)T(ED) {D}E4 |
(f/g/a) (gf) (ed){f}(e{d}c)|(d/c/d/e/ f)A (F/D/F/)A/ dD|{d/e/}f2 T(ed) (BA) (d/B/)(A/G/)|F2 TE2{D/E/}D4:|
|: a>bag Tf2 (ed)|(a/g/a/)b/ (a/b/a/)g/ Tf2 ed|fa(d’a) (ba)(gf)|(gf)(ed) Te4|(fg/a/) gf T(ede)c |
(d/c/d/e/ f)A (F/D/F/)A/ dD|(fg/a/) (g/f/e/d/) T(B/A/B/c/) (d/B/A/G/) | F2 TE2{D/E/}D4 :|]

